docs/img/svg/s-vk.svg

<svg width="35" height="22" viewBox="0 0 35 22" fill="none" xmlns="http://www.w3.org/2000/svg">
<path d="M33.8669 19.2363C33.7755 19.0694 33.2102 17.729 30.49 14.9741C27.6423 12.0892 28.0248 12.5577 31.4548 7.56954C33.5438 4.53167 34.379 2.67648 34.1176 1.88339C33.869 1.1274 32.3325 1.32683 32.3325 1.32683L27.2236 1.3593C27.2236 1.3593 26.8454 1.30364 26.5627 1.48684C26.2886 1.66772 26.1122 2.08514 26.1122 2.08514C26.1122 2.08514 25.3025 4.43659 24.2229 6.43555C21.9469 10.6538 21.0352 10.8764 20.6633 10.6144C19.7983 10.0045 20.0151 8.16088 20.0151 6.85297C20.0151 2.7646 20.5825 1.06015 18.9079 0.619541C18.3511 0.473445 17.9431 0.376048 16.5213 0.359815C14.698 0.338944 13.153 0.366772 12.2795 0.832888C11.6972 1.14363 11.2488 1.83701 11.523 1.87643C11.8609 1.92513 12.6259 2.10137 13.0318 2.70431C13.5568 3.48117 13.5376 5.22968 13.5376 5.22968C13.5376 5.22968 13.8394 10.0416 12.8342 10.6399C12.1435 11.0503 11.1978 10.2132 9.16831 6.38454C8.12911 4.42499 7.3428 2.25674 7.3428 2.25674C7.3428 2.25674 7.19191 1.85324 6.92202 1.63758C6.59474 1.37553 6.13571 1.29205 6.13571 1.29205L1.2776 1.32451C1.2776 1.32451 0.548674 1.3477 0.280904 1.69323C0.0428869 2.00166 0.261778 2.63706 0.261778 2.63706C0.261778 2.63706 4.06581 12.3466 8.37137 17.242C12.322 21.7293 16.8061 21.4347 16.8061 21.4347H18.8378C18.8378 21.4347 19.4519 21.3605 19.7643 20.9918C20.0534 20.6532 20.0427 20.0178 20.0427 20.0178C20.0427 20.0178 20.0024 17.0426 21.2689 16.6043C22.5164 16.173 24.1188 19.4798 25.8168 20.753C27.1004 21.7153 28.0758 21.5043 28.0758 21.5043L32.6173 21.4347C32.6173 21.4347 34.9932 21.2747 33.8669 19.2363Z" fill="#605F6C"/>
</svg>

<svg width="35" height="22" viewBox="0 0 35 22" fill="none" xmlns="http://www.w3.org/2000/svg"><path d="M33.867 19.236c-.091-.167-.657-1.507-3.377-4.262-2.848-2.885-2.465-2.416.965-7.404 2.089-3.038 2.924-4.894 2.663-5.687-.249-.756-1.785-.556-1.785-.556l-5.11.032s-.378-.055-.66.128c-.274.18-.45.598-.45.598s-.81 2.352-1.89 4.35c-2.276 4.219-3.188 4.441-3.56 4.18-.865-.61-.648-2.454-.648-3.762 0-4.088.567-5.793-1.107-6.233-.557-.147-.965-.244-2.387-.26-1.823-.021-3.368.007-4.242.473-.582.31-1.03 1.004-.756 1.043.338.05 1.103.225 1.509.828.525.777.506 2.526.506 2.526s.301 4.812-.704 5.41c-.69.41-1.636-.427-3.666-4.255-1.039-1.96-1.825-4.128-1.825-4.128s-.151-.404-.421-.62c-.327-.261-.786-.345-.786-.345l-4.858.033s-.73.023-.997.368c-.238.309-.02.944-.02.944s3.805 9.71 8.11 14.605c3.951 4.487 8.435 4.193 8.435 4.193h2.032s.614-.075.926-.443c.29-.339.279-.974.279-.974s-.04-2.975 1.226-3.414c1.247-.431 2.85 2.876 4.548 4.149 1.283.962 2.259.751 2.259.751l4.541-.07s2.376-.16 1.25-2.198z" fill="#605F6C"/></svg>
